X:1
T:Tis good to live in canaan
T:Tis good to live in canaan
T:Mrs.C. H. Morris adapted by William Duvall
C:Mrs.C. H. Morris
%%score { 1 | 2 }
L:1/8
M:4/4
K:D
V:1 treble nm="Piano" snm="Pno."
V:2 bass 
V:1
 A2 d3 d d2 | A2 B2 A4 | D2 F3 F F2 | E2 F4 z2 | A2 d3 d d2 | A2 B2 A4 | d2 e2 d2 c2 | B2 A6 | %8
 G2 F2 F z F2 | A2 A2 d4 | d2 f3 f f2 | e2 d6 | A2 d2 d2 c2 | B2 A4 f2 | e3 d d4 |] %15
V:2
 [D,F,A,]2 [D,F,A,]3 [D,F,A,] [D,F,A,]2 | [D,F,A,]2 [D,G,B,]2 [D,F,A,]4 | %2
 [D,F,A,]2 [D,F,A,]3 [D,F,A,] [D,F,A,]2 | [C,E,A,]2 [D,F,A,]4 z2 | %4
 [D,F,A,]2 [D,F,A,]3 [D,F,A,] [D,F,A,]2 | [D,F,A,]2 [D,G,B,]2 [D,F,A,]4 | z2 [C,E,A,]6- | %7
 [C,E,A,]2 A,2 G,2 F,2 | E,2 D,2 [D,F,A,] z [D,F,A,]2 | [D,F,A,]4 [D,F,A,]2 z2 | %10
 [D,F,A,]2 [D,F,A,]3 [D,F,A,] [D,F,A,]2 | [C,E,A,]2 [D,F,A,]6 | %12
 [D,F,A,]2 [D,F,A,]2 [D,F,A,]2 [C,E,A,]2 | [D,G,B,]2 [D,F,A,]4 [D,F,A,]2 | %14
 [C,E,A,]3 [D,F,A,] [D,F,A,]4 |] %15

